dashboard/src/assets/icons/operator.svg

<?xml version="1.0" encoding="UTF-8"?>
<svg width="128" height="128" version="1.1" viewBox="0 0 128 128" xmlns="http://www.w3.org/2000/svg">
 <defs>
  <style>.cls-1{fill:#fff;}.cls-2{fill:#2977ff;}.cls-3{fill:#65c8d0;}</style>
 </defs>
 <title>Opérateur</title>
 <g transform="matrix(.563 0 0 .563 28.492 5.8279)" data-name="Calque 2">
  <g data-name="Calque 1">
   <rect class="cls-1" x="3.04" y="3.01" width="120.12" height="200.63" rx="17.44" ry="17.44" fill="#fff"/>
   <path class="cls-2" d="m105.69 206.65h-85.24a20.47 20.47 0 0 1-20.45-20.45v-165.75a20.47 20.47 0 0 1 20.45-20.45h85.24a20.47 20.47 0 0 1 20.45 20.45v165.75a20.47 20.47 0 0 1-20.45 20.45zm-85.24-203.65a17.46 17.46 0 0 0-17.45 17.45v165.75a17.46 17.46 0 0 0 17.44 17.44h85.24a17.46 17.46 0 0 0 17.44-17.44v-165.75a17.46 17.46 0 0 0-17.43-17.45z" fill="#2977ff"/>
   <path class="cls-2" d="m121.41 26.69h-116.67v-6.24a15.55 15.55 0 0 1 15.71-15.72h85.24a15.55 15.55 0 0 1 15.71 15.72zm-113.66-3h110.65v-3.24a12.57 12.57 0 0 0-12.7-12.7h-85.25a12.57 12.57 0 0 0-12.7 12.7z" fill="#2977ff"/>
   <path class="cls-3" d="m48.86 13.35a2.37 2.37 0 0 0 0 4.74h28.42a2.37 2.37 0 1 0 0-4.74z" fill="#65c8d0"/>
   <path class="cls-2" d="m121.41 168.77h-116.67v-140.36h116.67zm-113.66-3h110.65v-134.34h-110.65z" fill="#2977ff"/>
   <path class="cls-2" d="m105.69 201.92h-85.24a15.55 15.55 0 0 1-15.71-15.72v-15.71h116.67v15.71a15.55 15.55 0 0 1-15.72 15.72zm-97.94-28.42v12.7a12.57 12.57 0 0 0 12.7 12.7h85.24a12.57 12.57 0 0 0 12.7-12.7v-12.7z" fill="#2977ff"/>
   <g fill="#65c8d0">
    <path class="cls-3" d="m63.07 194.81a8.61 8.61 0 1 1 8.61-8.61 8.62 8.62 0 0 1-8.61 8.61zm0-14.21a5.6 5.6 0 1 0 5.6 5.6 5.6 5.6 0 0 0-5.6-5.59z"/>
    <path class="cls-3" d="m48.71 74.05a3.23 3.23 0 1 0 3.23 3.23 3.19 3.19 0 0 0-3.23-3.23zm0 8.63a5.4 5.4 0 1 1 0-10.8 5.34 5.34 0 0 1 5.4 5.4 5.41 5.41 0 0 1-5.4 5.4z"/>
    <path class="cls-3" d="m42.93 89.4-2.11-0.5 0.36-1.51a6.67 6.67 0 0 1 3.34-4.87 9.43 9.43 0 0 1 2.32-0.83 14.85 14.85 0 0 1 1.94-0.17 8 8 0 0 1 2 0.18 7.65 7.65 0 0 1 2.28 0.82 6.72 6.72 0 0 1 3.35 4.93l0.29 1.5-2.13 0.41-0.29-1.51a4.57 4.57 0 0 0-2.28-3.43 5.63 5.63 0 0 0-1.7-0.61 8.42 8.42 0 0 0-3.1 0 7.36 7.36 0 0 0-1.66 0.61 4.55 4.55 0 0 0-2.22 3.39z"/>
    <path class="cls-3" d="m70.32 89.08-2.11-0.5 0.36-1.51a6.67 6.67 0 0 1 3.34-4.87 9.43 9.43 0 0 1 2.32-0.83 14.89 14.89 0 0 1 1.94-0.17 8 8 0 0 1 2 0.18 7.65 7.65 0 0 1 2.28 0.82 6.72 6.72 0 0 1 3.35 4.93l0.29 1.5-2.15 0.37-0.29-1.51a4.57 4.57 0 0 0-2.26-3.42 5.63 5.63 0 0 0-1.7-0.61 8.42 8.42 0 0 0-3.1 0 7.34 7.34 0 0 0-1.66 0.61 4.55 4.55 0 0 0-2.22 3.39z"/>
    <path class="cls-3" d="m76.1 82.36a5.4 5.4 0 1 1 0-10.8 5.34 5.34 0 0 1 5.4 5.44 5.41 5.41 0 0 1-5.4 5.36zm0-8.63a3.23 3.23 0 1 0 3.23 3.27 3.19 3.19 0 0 0-3.23-3.27z"/>
   </g>
   <g fill="#2977ff">
    <path class="cls-2" d="m101.45 132.93h-12a4.68 4.68 0 0 1-4.67-4.67v-6.78h-43.44v6.78a4.57 4.57 0 0 1-4.56 4.67h-12a4.68 4.68 0 0 1-4.67-4.67c0-9.32 0-19-0.12-28.56v-0.22l2.63-6.33c-5.81-0.7-6.24-4.41-6.23-5.61 0-1.83 1-3.86 2.49-3.86h8.09l5.61-12.62c3.61-5.06 6.42-6.81 11.03-6.81h39c4.63 0 7.42 1.72 11.06 6.82l0.11 0.19 5.5 12.43h8.08c1.4 0 2.41 2 2.43 3.86 0 1.2-0.43 4.91-6.29 5.61l2.63 6.33v0.22c0 4.82 0 9.61-0.06 14.38s-0.06 9.47-0.06 14.19a4.57 4.57 0 0 1-4.56 4.65zm-62.28-13.62h47.75v9a2.53 2.53 0 0 0 2.5 2.5h12a2.42 2.42 0 0 0 2.38-2.5c0-4.73 0-9.46 0.06-14.21s0.06-9.41 0.06-14.15l-3.65-8.78h1.58c3.11-0.08 5-1 5.57-2.54a3.23 3.23 0 0 0-0.36-2.69h-9.21l-6-13.62c-3.16-4.4-5.41-5.82-9.23-5.82h-39c-3.82 0-6.07 1.42-9.23 5.82l-6 13.62h-9.33a3.13 3.13 0 0 0-0.39 2.65c0.5 1.59 2.47 2.51 5.53 2.58h1.58l-3.64 8.73c0.11 9.53 0.11 19.1 0.11 28.36a2.53 2.53 0 0 0 2.5 2.5h12a2.42 2.42 0 0 0 2.39-2.5z"/>
    <path class="cls-2" d="m95.39 89.9h-64.58l0.7-1.54c0.58-1.26 1.14-2.53 1.71-3.82 1.28-2.87 2.6-5.85 4.2-9.05 1.33-2.3 3-4.71 6.08-5h39.09c3.21 0.29 4.85 2.7 6.14 4.94 1.64 3.27 3 6.25 4.25 9.14 0.57 1.28 1.13 2.54 1.7 3.79zm-61.2-2.17h57.81l-1-2.28c-1.27-2.86-2.59-5.82-4.17-9-1.31-2.26-2.45-3.63-4.33-3.8h-38.89c-1.78 0.17-2.93 1.54-4.27 3.85-1.55 3.1-2.86 6.05-4.13 8.91z"/>
    <path class="cls-2" d="m75.31 112h-24.53a3.805 3.805 0 0 1 0-7.61h24.53a3.805 3.805 0 0 1 0 7.61zm-24.52-5.44a1.72 1.72 0 0 0-1.58 1.69 1.68 1.68 0 0 0 1.58 1.58h24.52a1.6 1.6 0 0 0 1.58-1.58 1.64 1.64 0 0 0-1.58-1.69z"/>
   </g>
   <path class="cls-3" d="m34.24 113a6.88 6.88 0 0 1-6.87-6.87 6.8 6.8 0 0 1 6.87-6.87 6.88 6.88 0 0 1 6.87 6.87 7 7 0 0 1-6.87 6.87zm0-11.57a4.65 4.65 0 0 0-4.7 4.7 4.7 4.7 0 0 0 4.7 4.7 4.82 4.82 0 0 0 4.7-4.7 4.7 4.7 0 0 0-4.7-4.66z" fill="#65c8d0"/>
   <path class="cls-3" d="m92 113.11a6.88 6.88 0 0 1-6.87-6.87 6.8 6.8 0 0 1 6.87-6.86 6.88 6.88 0 0 1 6.87 6.87 7 7 0 0 1-6.87 6.86zm0-11.57a4.65 4.65 0 0 0-4.7 4.7 4.7 4.7 0 0 0 4.7 4.7 4.82 4.82 0 0 0 4.7-4.7 4.7 4.7 0 0 0-4.7-4.69z" fill="#65c8d0"/>
  </g>
 </g>
</svg>

<svg xmlns="http://www.w3.org/2000/svg" viewBox="0 0 126.14 206.65"><defs><style>.cls-1{fill:#fff;}.cls-2{fill:#2977ff;}.cls-3{fill:#65c8d0;}</style></defs><title>Opérateur</title><g id="Calque_2" data-name="Calque 2"><g id="Calque_1-2" data-name="Calque 1"><rect class="cls-1" x="3.04" y="3.01" width="120.12" height="200.63" rx="17.44" ry="17.44"/><path class="cls-2" d="M105.69,206.65H20.45A20.47,20.47,0,0,1,0,186.2V20.45A20.47,20.47,0,0,1,20.45,0h85.24a20.47,20.47,0,0,1,20.45,20.45V186.2A20.47,20.47,0,0,1,105.69,206.65ZM20.45,3A17.46,17.46,0,0,0,3,20.45V186.2a17.46,17.46,0,0,0,17.44,17.44h85.24a17.46,17.46,0,0,0,17.44-17.44V20.45A17.46,17.46,0,0,0,105.69,3Z"/><path class="cls-2" d="M121.41,26.69H4.74V20.45A15.55,15.55,0,0,1,20.45,4.73h85.24a15.55,15.55,0,0,1,15.71,15.72Zm-113.66-3H118.4V20.45a12.57,12.57,0,0,0-12.7-12.7H20.45a12.57,12.57,0,0,0-12.7,12.7Z"/><path class="cls-3" d="M48.86,13.35a2.37,2.37,0,0,0,0,4.74H77.28a2.37,2.37,0,1,0,0-4.74Z"/><path class="cls-2" d="M121.41,168.77H4.74V28.41H121.41Zm-113.66-3H118.4V31.43H7.75Z"/><path class="cls-2" d="M105.69,201.92H20.45A15.55,15.55,0,0,1,4.74,186.2V170.49H121.41V186.2A15.55,15.55,0,0,1,105.69,201.92ZM7.75,173.5v12.7a12.57,12.57,0,0,0,12.7,12.7h85.24a12.57,12.57,0,0,0,12.7-12.7V173.5Z"/><path class="cls-3" d="M63.07,194.81a8.61,8.61,0,1,1,8.61-8.61A8.62,8.62,0,0,1,63.07,194.81Zm0-14.21a5.6,5.6,0,1,0,5.6,5.6A5.6,5.6,0,0,0,63.07,180.61Z"/><path class="cls-3" d="M48.71,74.05a3.23,3.23,0,1,0,3.23,3.23A3.19,3.19,0,0,0,48.71,74.05Zm0,8.63a5.4,5.4,0,1,1,0-10.8,5.34,5.34,0,0,1,5.4,5.4A5.41,5.41,0,0,1,48.71,82.68Z"/><path class="cls-3" d="M42.93,89.4l-2.11-.5.36-1.51a6.67,6.67,0,0,1,3.34-4.87,9.43,9.43,0,0,1,2.32-.83,14.85,14.85,0,0,1,1.94-.17,8,8,0,0,1,2,.18,7.65,7.65,0,0,1,2.28.82,6.72,6.72,0,0,1,3.35,4.93l.29,1.5-2.13.41-.29-1.51A4.57,4.57,0,0,0,52,84.42a5.63,5.63,0,0,0-1.7-.61,8.42,8.42,0,0,0-3.1,0,7.36,7.36,0,0,0-1.66.61,4.55,4.55,0,0,0-2.22,3.39Z"/><path class="cls-3" d="M70.32,89.08l-2.11-.5.36-1.51a6.67,6.67,0,0,1,3.34-4.87,9.43,9.43,0,0,1,2.32-.83,14.89,14.89,0,0,1,1.94-.17,8,8,0,0,1,2,.18,7.65,7.65,0,0,1,2.28.82,6.72,6.72,0,0,1,3.35,4.93l.29,1.5L81.94,89l-.29-1.51a4.57,4.57,0,0,0-2.26-3.42,5.63,5.63,0,0,0-1.7-.61,8.42,8.42,0,0,0-3.1,0,7.34,7.34,0,0,0-1.66.61,4.55,4.55,0,0,0-2.22,3.39Z"/><path class="cls-3" d="M76.1,82.36a5.4,5.4,0,1,1,0-10.8A5.34,5.34,0,0,1,81.5,77,5.41,5.41,0,0,1,76.1,82.36Zm0-8.63A3.23,3.23,0,1,0,79.33,77,3.19,3.19,0,0,0,76.1,73.73Z"/><path class="cls-2" d="M101.45,132.93h-12a4.68,4.68,0,0,1-4.67-4.67v-6.78H41.34v6.78a4.57,4.57,0,0,1-4.56,4.67h-12a4.68,4.68,0,0,1-4.67-4.67c0-9.32,0-19-.12-28.56v-.22l2.63-6.33c-5.81-.7-6.24-4.41-6.23-5.61,0-1.83,1-3.86,2.49-3.86h8.09l5.61-12.62C36.19,66,39,64.25,43.61,64.25h39c4.63,0,7.42,1.72,11.06,6.82l.11.19,5.5,12.43h8.08c1.4,0,2.41,2,2.43,3.86,0,1.2-.43,4.91-6.29,5.61l2.63,6.33v.22c0,4.82,0,9.61-.06,14.38s-.06,9.47-.06,14.19A4.57,4.57,0,0,1,101.45,132.93ZM39.17,119.31H86.92v9a2.53,2.53,0,0,0,2.5,2.5h12a2.42,2.42,0,0,0,2.38-2.5c0-4.73,0-9.46.06-14.21s.06-9.41.06-14.15l-3.65-8.78,1.58,0c3.11-.08,5-1,5.57-2.54a3.23,3.23,0,0,0-.36-2.69H97.85l-6-13.62c-3.16-4.4-5.41-5.82-9.23-5.82h-39c-3.82,0-6.07,1.42-9.23,5.82l-6,13.62H19.06a3.13,3.13,0,0,0-.39,2.65c.5,1.59,2.47,2.51,5.53,2.58l1.58,0L22.14,99.9c.11,9.53.11,19.1.11,28.36a2.53,2.53,0,0,0,2.5,2.5h12a2.42,2.42,0,0,0,2.39-2.5Z"/><path class="cls-2" d="M95.39,89.9H30.81l.7-1.54c.58-1.26,1.14-2.53,1.71-3.82,1.28-2.87,2.6-5.85,4.2-9.05,1.33-2.3,3-4.71,6.08-5H82.59c3.21.29,4.85,2.7,6.14,4.94,1.64,3.27,3,6.25,4.25,9.14.57,1.28,1.13,2.54,1.7,3.79Zm-61.2-2.17H92l-1-2.28c-1.27-2.86-2.59-5.82-4.17-9-1.31-2.26-2.45-3.63-4.33-3.8H43.61c-1.78.17-2.93,1.54-4.27,3.85-1.55,3.1-2.86,6.05-4.13,8.91Z"/><path class="cls-2" d="M75.31,112H50.78a3.8,3.8,0,0,1,0-7.61H75.31a3.8,3.8,0,0,1,0,7.61Zm-24.52-5.44a1.72,1.72,0,0,0-1.58,1.69,1.68,1.68,0,0,0,1.58,1.58H75.31a1.6,1.6,0,0,0,1.58-1.58,1.64,1.64,0,0,0-1.58-1.69Z"/><path class="cls-3" d="M34.24,113a6.88,6.88,0,0,1-6.87-6.87,6.8,6.8,0,0,1,6.87-6.87,6.88,6.88,0,0,1,6.87,6.87A7,7,0,0,1,34.24,113Zm0-11.57a4.65,4.65,0,0,0-4.7,4.7,4.7,4.7,0,0,0,4.7,4.7,4.82,4.82,0,0,0,4.7-4.7A4.7,4.7,0,0,0,34.24,101.47Z"/><path class="cls-3" d="M92,113.11a6.88,6.88,0,0,1-6.87-6.87A6.8,6.8,0,0,1,92,99.38a6.88,6.88,0,0,1,6.87,6.87A7,7,0,0,1,92,113.11Zm0-11.57a4.65,4.65,0,0,0-4.7,4.7,4.7,4.7,0,0,0,4.7,4.7,4.82,4.82,0,0,0,4.7-4.7A4.7,4.7,0,0,0,92,101.55Z"/></g></g></svg>
